src/assets/img/exchanges/gate-logo.svg

<svg viewBox="0 0 122 37" fill="none" xmlns="http://www.w3.org/2000/svg">
<path d="M14.4748 18.2127L14.1571 17.8886C13.9133 17.6455 13.4995 17.8149 13.4995 18.1611V22.7506C13.4995 22.9643 13.6768 23.1337 13.8837 23.1337H18.487C18.8269 23.1337 19.0042 22.7212 18.7604 22.4781C18.6126 22.3307 18.6126 22.0876 18.7604 21.9329L23.6518 17.0414C23.7996 16.8941 23.7996 16.6509 23.6518 16.4962L23.2085 16.0542C22.9647 15.8111 23.142 15.3986 23.4819 15.3986H28.0778C28.2921 15.3986 28.462 15.568 28.462 15.7817V20.3712C28.462 20.71 28.0482 20.8868 27.8044 20.6437L27.4941 20.3343C27.3389 20.1796 27.1024 20.1796 26.9473 20.3343L18.6939 28.5557C18.5461 28.703 18.3023 28.703 18.1471 28.5557L8.05389 18.4853C7.90611 18.3379 7.89872 18.0948 8.05389 17.9401L22.0263 4.00957C22.1741 3.86223 22.1741 3.61176 22.0263 3.46443L18.7382 0.186216C18.5904 0.0388803 18.3466 0.0388803 18.1914 0.186216L0.110833 18.2274C-0.0369444 18.3748 -0.0369444 18.6252 0.110833 18.7726L18.1988 36.8064C18.3466 36.9538 18.5978 36.9538 18.7456 36.8064L36.8336 18.7726C36.9814 18.6252 36.9814 18.3821 36.8336 18.2274L26.1936 7.61929C26.0458 7.47195 25.802 7.47195 25.6468 7.61929L15.0216 18.2127C14.8738 18.36 14.63 18.36 14.4748 18.2127ZM97.9693 22.7727C97.5038 22.7727 97.0974 22.9422 96.7649 23.2737C96.4324 23.6125 96.2625 24.003 96.2625 24.4597C96.2625 25.1596 96.6171 25.7047 97.3265 26.0878C98.1023 26.3014 98.7229 26.1615 99.1884 25.6826C99.5283 25.3437 99.6909 24.9386 99.6909 24.4671C99.6909 23.9883 99.5209 23.5905 99.1884 23.2663C98.8486 22.9422 98.4496 22.7727 97.9693 22.7727ZM70.4826 9.80722H69.2043C68.6502 9.80722 68.2068 10.2492 68.2068 10.8017V11.5089C66.8473 10.1019 65.3178 9.40205 63.5962 9.40205C61.616 9.40205 59.9608 10.1387 58.6456 11.6047C57.323 13.0707 56.6654 14.905 56.6654 17.1003C56.6654 19.3398 57.323 21.2036 58.6382 22.7064C59.9682 24.1724 61.6529 24.9091 63.6848 24.9091C65.2956 24.9091 66.803 24.2535 68.1995 22.9495V24.3492C68.1995 25.027 68.7536 25.5868 69.4334 25.5868H71.6131V10.9491C71.6205 10.3229 71.1107 9.80722 70.4826 9.80722ZM67.2611 20.5774C66.4852 21.4394 65.4656 21.874 64.2094 21.874C63.0272 21.874 62.0519 21.4246 61.2761 20.5332C60.5224 19.6492 60.1382 18.5 60.1382 17.1003C60.1382 15.789 60.5298 14.6767 61.3056 13.7853C62.0888 12.9013 63.0716 12.4593 64.239 12.4593C65.4803 12.4593 66.4852 12.8939 67.2611 13.7705C68.0369 14.6619 68.4285 15.7964 68.4285 17.174C68.4211 18.5516 68.0295 19.6861 67.2611 20.5774ZM56.6654 12.2825V10.8312C56.6654 10.264 56.2073 9.80722 55.6383 9.80722H54.2936C53.7246 9.80722 53.2665 10.264 53.2665 10.8312V11.4647C52.04 10.0872 50.4957 9.39468 48.6411 9.39468C46.5278 9.39468 44.821 10.1903 43.5353 11.7741C42.3383 13.2696 41.7398 15.0892 41.7398 17.2256C41.7398 19.4282 42.3827 21.2625 43.6757 22.7212C44.954 24.1724 46.5943 24.887 48.6041 24.887C50.3627 24.887 51.9217 24.2019 53.2739 22.8243V24.8723C53.2739 27.9147 52.0326 29.4397 49.5425 29.4397C48.1903 29.4397 47.1633 28.9829 46.4613 28.0694C46.284 27.8411 46.1288 27.5464 46.0106 27.2002C45.8407 26.714 45.3826 26.3972 44.8727 26.3972H43.5871C42.9368 26.3972 42.4566 27.016 42.6191 27.6422C42.9738 28.9756 43.6536 30.0585 44.6658 30.8983C45.9367 31.9517 47.5549 32.4821 49.513 32.4821C51.8405 32.4821 53.6655 31.716 54.9955 30.1911C55.6975 29.3955 56.1703 28.4452 56.4142 27.3401C56.4954 26.9423 56.562 26.4709 56.6063 25.9478C56.6506 25.4248 56.6728 24.8133 56.6728 24.1209V21.9919C55.7196 20.6216 55.2393 18.9936 55.2393 17.0856C55.232 15.2292 55.7122 13.6306 56.6654 12.2825ZM52.3577 20.4596C51.604 21.4025 50.577 21.874 49.2765 21.874C47.9761 21.874 46.9564 21.4099 46.2249 20.4743C45.5525 19.6198 45.2126 18.5295 45.2126 17.1887C45.2126 15.8332 45.5525 14.7282 46.2249 13.8737C46.9712 12.9234 47.9908 12.4445 49.2765 12.4445C50.4883 12.4445 51.4784 12.8792 52.2542 13.7558C53.0227 14.6104 53.4069 15.7522 53.4069 17.174C53.3995 18.5074 53.0522 19.605 52.3577 20.4596ZM84.9279 9.82195V9.80722H77.8789V5.50502C77.8789 4.95252 77.4282 4.50314 76.874 4.50314H75.4997C74.9381 4.50314 74.48 4.95988 74.48 5.51976V9.80722H73.0318V12.9676H74.48V25.5721H76.4159C77.2213 25.5721 77.8715 24.9238 77.8789 24.1209V12.9749H81.3664C81.6398 12.4519 81.9797 11.9657 82.3713 11.5237C83.0881 10.7354 83.9452 10.1682 84.9279 9.82195ZM102.277 4.50314C101.671 4.50314 101.154 4.71678 100.725 5.15142C100.297 5.58606 100.075 6.09437 100.075 6.69107C100.075 7.31725 100.289 7.84029 100.725 8.27493C101.161 8.70957 101.686 8.92321 102.299 8.92321C102.912 8.92321 103.43 8.70957 103.851 8.27493C104.287 7.84029 104.501 7.32462 104.501 6.70581C104.501 6.09437 104.287 5.57869 103.851 5.15879C103.415 4.71678 102.89 4.50314 102.277 4.50314ZM102.964 11.4721H101.73C101.095 11.4721 100.585 11.9804 100.585 12.614V23.3768C100.844 23.6789 100.969 24.0398 100.969 24.4524C100.969 24.8649 100.844 25.2332 100.585 25.5353V26.1394H102.772C103.444 26.1394 103.984 25.5942 103.984 24.9312V12.4814C103.984 11.9215 103.526 11.4721 102.964 11.4721ZM118.946 13.5495C117.417 12.0541 115.547 11.3027 113.353 11.3027C111.166 11.3027 109.311 12.0467 107.789 13.5348C106.267 15.0229 105.506 16.8204 105.506 18.942C105.506 21.1889 106.252 23.06 107.745 24.5481C109.237 26.051 111.085 26.8097 113.286 26.8097C115.511 26.8097 117.395 26.0731 118.924 24.5923C120.439 23.1042 121.207 21.2626 121.207 19.0599C121.207 16.8793 120.454 15.045 118.946 13.5495ZM116.538 22.5002C115.747 23.3547 114.683 23.7746 113.353 23.7746C112.03 23.7746 110.966 23.3473 110.161 22.4781C109.378 21.6235 108.979 20.4596 108.979 19.0009C108.979 17.6381 109.385 16.5183 110.191 15.6564C110.996 14.7945 112.045 14.3599 113.346 14.3599C114.661 14.3599 115.725 14.7945 116.53 15.6564C117.328 16.511 117.727 17.6528 117.727 19.0746C117.735 20.5038 117.336 21.6383 116.538 22.5002Z" fill="#DE5959"/>
<path d="M86.1914 21.9035C85.4894 21.1962 85.0978 20.2312 85.0091 19.0304H94.7551C95.1984 19.0304 95.5679 18.6768 95.5753 18.2348C95.5753 15.8111 94.9472 13.9179 93.7059 12.555C92.4424 11.1774 90.7281 10.4923 88.5632 10.4923C86.4204 10.4923 84.6988 11.1995 83.3984 12.614C82.1053 14.0505 81.4625 15.929 81.4625 18.2495C81.4625 20.5922 82.1275 22.4707 83.4575 23.8851C84.3885 24.8723 85.5264 25.5058 86.8711 25.8005C87.4401 25.9331 88.0238 25.9994 88.6149 25.992C91.0385 26.0436 93.1443 26.0952 95.5605 26.1394V25.7857C95.2649 25.4616 95.1171 25.0785 95.1171 24.6292C95.1171 24.1872 95.2723 23.8115 95.5753 23.4873V23.06C93.6615 23.0158 89.0361 22.9643 88.8514 22.9643C87.78 22.9643 86.8859 22.6107 86.1914 21.9035ZM85.7185 15.126C85.9328 14.7945 86.184 14.5146 86.4795 14.2789C86.7751 14.0431 87.1076 13.8589 87.4696 13.7337C87.8317 13.6085 88.2233 13.5422 88.6371 13.5422C90.4474 13.5422 91.5927 14.4483 92.0655 16.2531H85.2308C85.349 15.8332 85.5116 15.4575 85.7185 15.126Z" fill="#DE5959"/>
</svg>

<svg viewBox="0 0 122 37" fill="none" xmlns="http://www.w3.org/2000/svg"><path d="m14.475 18.213-.318-.324a.384.384 0 0 0-.658.272v4.59c0 .213.178.383.385.383h4.603c.34 0 .517-.413.273-.656a.39.39 0 0 1 0-.545l4.892-4.892a.39.39 0 0 0 0-.545l-.444-.442a.385.385 0 0 1 .274-.655h4.596c.214 0 .384.169.384.383v4.59a.386.386 0 0 1-.658.272l-.31-.31a.38.38 0 0 0-.547 0l-8.253 8.222a.394.394 0 0 1-.547 0L8.054 18.486a.384.384 0 0 1 0-.546L22.026 4.01a.39.39 0 0 0 0-.546L18.738.186a.393.393 0 0 0-.547 0L.111 18.227a.39.39 0 0 0 0 .546l18.088 18.033a.393.393 0 0 0 .547 0l18.088-18.033a.39.39 0 0 0 0-.546L26.194 7.62a.393.393 0 0 0-.547 0L15.022 18.213a.394.394 0 0 1-.547 0Zm83.494 4.56c-.465 0-.872.17-1.204.5-.333.34-.502.73-.502 1.187 0 .7.354 1.245 1.063 1.628.776.213 1.397.073 1.862-.405a1.65 1.65 0 0 0 .503-1.216c0-.479-.17-.877-.503-1.2a1.699 1.699 0 0 0-1.219-.494ZM70.483 9.807h-1.279a.992.992 0 0 0-.997.995v.707c-1.36-1.407-2.89-2.107-4.61-2.107-1.981 0-3.636.737-4.951 2.203-1.323 1.466-1.98 3.3-1.98 5.495 0 2.24.657 4.104 1.972 5.606 1.33 1.466 3.015 2.203 5.047 2.203 1.61 0 3.118-.655 4.514-1.96v1.4a1.24 1.24 0 0 0 1.234 1.238h2.18V10.949a1.132 1.132 0 0 0-1.13-1.142Zm-3.222 10.77c-.776.862-1.795 1.297-3.052 1.297-1.182 0-2.157-.45-2.933-1.34-.754-.885-1.138-2.034-1.138-3.434 0-1.311.392-2.423 1.168-3.315.783-.884 1.766-1.326 2.933-1.326 1.241 0 2.246.435 3.022 1.312.776.89 1.168 2.025 1.168 3.403-.008 1.378-.4 2.512-1.168 3.403Zm-10.596-8.295v-1.45c0-.568-.458-1.025-1.027-1.025h-1.344c-.57 0-1.027.457-1.027 1.024v.634c-1.227-1.378-2.771-2.07-4.626-2.07-2.113 0-3.82.795-5.106 2.38-1.197 1.495-1.795 3.314-1.795 5.45 0 2.203.643 4.037 1.936 5.496 1.278 1.451 2.918 2.166 4.928 2.166 1.759 0 3.318-.685 4.67-2.063v2.048c0 3.043-1.241 4.568-3.732 4.568-1.352 0-2.379-.457-3.08-1.37a3.003 3.003 0 0 1-.451-.87 1.201 1.201 0 0 0-1.138-.803h-1.286a1 1 0 0 0-.968 1.245c.355 1.334 1.035 2.416 2.047 3.256 1.27 1.054 2.889 1.584 4.847 1.584 2.328 0 4.153-.766 5.483-2.29.701-.797 1.174-1.747 1.418-2.852.081-.398.148-.87.192-1.392.045-.523.067-1.135.067-1.827v-2.13c-.953-1.37-1.434-2.997-1.434-4.905-.007-1.857.473-3.455 1.426-4.803Zm-4.307 8.178c-.754.942-1.781 1.414-3.081 1.414s-2.32-.464-3.052-1.4c-.672-.854-1.012-1.945-1.012-3.285 0-1.356.34-2.46 1.012-3.315.746-.95 1.766-1.43 3.051-1.43 1.212 0 2.202.435 2.978 1.312.769.854 1.153 1.996 1.153 3.418-.007 1.333-.355 2.431-1.05 3.286Zm32.57-10.638v-.015h-7.05V5.505c0-.552-.45-1.002-1.004-1.002H75.5a1.02 1.02 0 0 0-1.02 1.017v4.287h-1.448v3.16h1.448v12.605h1.936c.805 0 1.456-.648 1.463-1.451V12.975h3.487a7.275 7.275 0 0 1 1.005-1.451 6.198 6.198 0 0 1 2.557-1.702Zm17.349-5.319c-.606 0-1.123.214-1.552.648-.428.435-.65.943-.65 1.54 0 .626.214 1.15.65 1.584.436.435.961.648 1.574.648.613 0 1.131-.213 1.552-.648.436-.435.65-.95.65-1.57a2.06 2.06 0 0 0-.65-1.546 2.125 2.125 0 0 0-1.574-.656Zm.687 6.97h-1.234a1.14 1.14 0 0 0-1.145 1.141v10.763a1.6 1.6 0 0 1 .384 1.075c0 .413-.125.781-.384 1.083v.604h2.187c.672 0 1.212-.545 1.212-1.208v-12.45c0-.56-.458-1.009-1.02-1.009Zm15.982 2.076c-1.529-1.495-3.399-2.246-5.593-2.246-2.187 0-4.042.744-5.564 2.232-1.522 1.488-2.283 3.285-2.283 5.407 0 2.247.746 4.118 2.239 5.606 1.492 1.503 3.34 2.262 5.541 2.262 2.225 0 4.109-.737 5.638-2.218 1.515-1.488 2.283-3.33 2.283-5.532 0-2.18-.753-4.015-2.261-5.51Zm-2.408 8.951c-.791.855-1.855 1.275-3.185 1.275-1.323 0-2.387-.428-3.192-1.297-.783-.855-1.182-2.018-1.182-3.477 0-1.363.406-2.483 1.212-3.345.805-.862 1.854-1.296 3.155-1.296 1.315 0 2.379.434 3.184 1.296.798.855 1.197 1.997 1.197 3.419.008 1.429-.391 2.563-1.189 3.425Z" fill="#DE5959"/><path d="M86.191 21.904c-.702-.708-1.093-1.673-1.182-2.874h9.746a.818.818 0 0 0 .82-.795c0-2.424-.628-4.317-1.87-5.68-1.263-1.378-2.977-2.063-5.142-2.063-2.143 0-3.864.707-5.165 2.122-1.293 1.436-1.935 3.315-1.935 5.636 0 2.342.665 4.22 1.995 5.635.93.987 2.068 1.62 3.413 1.915a7.272 7.272 0 0 0 1.744.192c2.424.052 4.53.103 6.946.147v-.353a1.654 1.654 0 0 1-.444-1.157c0-.442.155-.818.458-1.142v-.427c-1.913-.044-6.539-.096-6.724-.096-1.071 0-1.965-.353-2.66-1.06Zm-.472-6.778c.214-.332.465-.611.76-.847.296-.236.629-.42.99-.545a3.56 3.56 0 0 1 1.168-.192c1.81 0 2.956.906 3.428 2.711h-6.834c.118-.42.28-.796.488-1.127Z" fill="#DE5959"/></svg>
